usr/share/icons/biglinux-icons-material/24/actions/edit-table-insert-column-right.svg

<svg xmlns="http://www.w3.org/2000/svg" viewBox="0 0 24 24"><path d="M4 4v16h10v-1h-4v-2h4v-1h-4v-2h10v-1H10v-2h4v-1h-4V8h4V7h-4V5h10V4H4zm1 1h4v2H5V5zm0 3h4v2H5V8zm0 3h4v2H5v-2zm0 3h4v2H5v-2zm10 1v5l5-2.5-5-2.5zM5 17h4v2H5v-2z" style="fill:currentColor;fill-opacity:1;stroke:none;color:#dedede"/><path d="M14 4v10h6V4h-6zm1 1h4v.293l-4 4V5zm4 1.707v2.586L15.293 13H15v-2.293l4-4zm0 4V13h-2.293L19 10.707z" style="fill:currentColor;fill-opacity:1;stroke:none;color:#3daee9"/></svg>

<svg xmlns="http://www.w3.org/2000/svg" viewBox="0 0 24 24">
  <defs id="defs3051">
    <style type="text/css" id="current-color-scheme">
      .ColorScheme-Text {
        color:#dedede;
      }
      .ColorScheme-Highlight {
        color:#3daee9;
      }
      </style>
  </defs>
 <path 
     style="fill:currentColor;fill-opacity:1;stroke:none" 
     d="M 4 4 L 4 5 L 4 20 L 5 20 L 14 20 L 14 19 L 10 19 L 10 17 L 14 17 L 14 16 L 10 16 L 10 14 L 14 14 L 20 14 L 20 13 L 14 13 L 10 13 L 10 11 L 14 11 L 14 10 L 10 10 L 10 8 L 14 8 L 14 7 L 10 7 L 10 6 L 10 5 L 14 5 L 20 5 L 20 4 L 14 4 L 4 4 z M 5 5 L 9 5 L 9 6 L 9 7 L 8 7 L 5 7 L 5 5 z M 5 8 L 8 8 L 9 8 L 9 10 L 5 10 L 5 8 z M 5 11 L 9 11 L 9 13 L 5 13 L 5 11 z M 5 14 L 9 14 L 9 16 L 8 16 L 5 16 L 5 14 z M 15 15 L 15 20 L 20 17.5 L 15 15 z M 5 17 L 8 17 L 9 17 L 9 18.099609 L 9 19 L 5 19 L 5 17 z "
     class="ColorScheme-Text"
     />
 <path 
     style="fill:currentColor;fill-opacity:1;stroke:none" 
     d="M 14 4 L 14 5 L 14 10.292969 L 14 13 L 14 14 L 20 14 L 20 13 L 20 5 L 20 4 L 14 4 z M 15 5 L 19 5 L 19 5.2929688 L 15 9.2929688 L 15 5 z M 19 6.7070312 L 19 9.2929688 L 15.292969 13 L 15 13 L 15 10.707031 L 19 6.7070312 z M 19 10.707031 L 19 13 L 16.707031 13 L 19 10.707031 z "
     class="ColorScheme-Highlight"
     />
</svg>
